!!!OTL: Die Schlangenkoechin 'What'll ye leave to your mother,
!!!ARE: Westeuropa, England
!!!YOR: 4, S. 210
!!    1925 gedruckt in Aberdeen
!!!SCT: Q2079Q
!!!YEM: Copyright 1995, estate of Helmut Schaffrath.
**kern
*ICvox
*Ivox
*M2/4
*k[f#]
*G:
{12d
12d
12d
=1
4g
8a
8f#
=2
4g
4b}
=3
{4dd
8ee
8ee
=4
4dd}
{12d
12d
12d
=5
4g
8a
8f#
=6
4g
4b}
=7
{4dd
8cc
8a
=8
4g}
{4b
=9
8cc
8dd
8ee
8cc
=10
8b
8dd}
{8dd
8b
=11
4cc
8b
8a
=12
8g
8f#}
{8e
8d
=13
4g
8a
8f#
=14
4g}
{8b
8cc
=15
4dd
8cc
8a
=16
8g
8f#}
{8e
8d
=17
4g
8a
8f#
=18
4g}
{8b
8cc
=19
4dd
8cc
8a
=20
4g}
==
!!!AGN: Ballade, Mord; Reigen - Tanz, antiphonal
!! Englische Fassung der Ballade.
!!    Zweite und vierte Zeile = Refrain.
!!!ONB: ESAC (Essen Associative Code) Database: BALLADE
!!!AMT: simple duple
!!!AIN: vox
!!!EED: Helmut Schaffrath
!!!EEV: 1.0
*-
